X: 33115
T: Prince's Feather, The
R: reel
M: 4/4
K: Emajor
~E3 G BG (3GGG|BGBc BGFG|EGBc Bcec|BEGB cF (3FFF|
cF (3FFF cFBA|GBAF GEED|Eeef ~e2 BA|GBAF GEE:|
~F3 E FB, (3B,B,B,|DFGB AGFG|E2 BE cEBE|GBed cBAG|
F^EFG FB, (3B,B,B,|DFGB AGFG|Eeed ~e2 BA|GBAF GEE:|

